<?xml version="1.0" encoding="UTF-8"?>
<map version="1.10" tiledversion="1.11.1" orientation="orthogonal" renderorder="right-down" width="60" height="34" tilewidth="32" tileheight="32" infinite="0" nextlayerid="4" nextobjectid="1">
 <tileset firstgid="1" source="normal_tileset.tsx"/>
 <tileset firstgid="65" source="collision_tileset.tsx"/>
 <layer id="2" name="back" width="60" height="34">
  <data encoding="csv">
0,0,0,0,0,0,0,0,0,0,0,0,0,0,0,0,0,0,0,0,0,0,0,0,0,0,0,0,0,0,0,0,0,0,0,0,0,0,0,0,0,0,0,0,0,0,0,0,0,0,0,0,0,0,0,0,0,0,0,0,
0,0,0,0,0,0,0,0,0,0,0,0,0,0,0,0,0,0,0,0,0,0,0,0,0,0,0,0,0,0,0,0,0,0,0,0,0,0,0,0,0,0,0,0,0,0,0,0,0,0,0,0,0,0,0,0,0,0,0,0,
0,0,0,0,0,0,0,0,0,0,0,0,0,0,0,0,0,0,0,0,0,0,0,0,0,0,0,0,0,0,0,0,0,0,0,0,0,0,0,0,0,0,0,0,0,0,0,0,0,0,0,0,0,0,0,0,0,0,0,0,
0,0,0,0,0,0,0,0,0,0,0,0,0,0,0,0,0,0,0,0,0,0,0,0,0,0,0,0,0,0,0,0,0,0,0,0,0,0,0,0,0,0,0,0,0,0,0,0,0,0,0,0,0,0,0,0,0,0,0,0,
0,0,0,0,0,0,0,0,0,0,0,0,0,0,0,0,0,0,0,0,0,0,0,0,0,0,0,0,0,0,0,0,0,0,0,0,0,0,0,0,0,0,0,0,0,0,0,0,0,0,0,0,0,0,0,0,0,0,0,0,
0,0,0,0,0,0,0,0,0,0,0,0,0,0,0,0,0,0,0,0,0,0,0,0,0,0,0,0,0,0,0,39,0,0,39,0,0,39,39,0,0,0,39,39,0,0,0,0,0,0,0,0,0,0,0,0,0,0,0,0,
0,0,0,0,0,0,0,0,0,0,0,0,0,0,0,0,0,0,0,0,0,0,0,0,0,0,0,0,0,0,0,39,0,0,39,0,39,0,0,39,0,39,0,0,39,0,0,0,0,0,0,0,0,0,0,0,0,0,0,0,
0,0,0,0,0,0,0,0,0,0,0,0,0,0,0,0,0,0,0,0,0,0,0,0,0,0,0,0,0,0,0,39,0,0,39,0,0,0,0,39,0,39,0,0,39,0,0,0,0,0,0,0,0,0,0,0,0,0,0,0,
0,0,0,0,0,0,0,0,0,0,0,0,0,0,0,0,0,0,0,0,0,0,0,0,0,0,0,0,0,0,0,39,39,39,39,0,0,0,39,0,0,39,0,0,39,0,0,0,0,0,0,0,0,0,0,0,0,0,0,0,
0,0,0,0,0,0,0,0,0,0,0,0,0,0,0,0,0,0,0,0,0,0,0,0,0,0,0,0,0,0,0,39,0,0,39,0,0,39,0,0,0,39,0,0,39,0,0,0,0,0,0,0,0,0,0,0,0,0,0,0,
0,0,0,0,0,0,0,0,0,0,0,0,0,0,0,0,0,0,0,0,0,0,0,0,0,0,0,0,0,0,0,39,0,0,39,0,39,0,0,0,0,39,0,0,39,0,0,0,0,0,40,40,40,40,40,40,40,40,40,40,
0,0,0,0,0,0,0,0,0,0,0,0,0,0,0,0,0,0,0,40,40,40,40,40,40,40,40,40,0,0,0,39,0,0,39,0,39,39,39,39,0,0,39,39,0,0,0,0,0,0,39,39,39,39,39,39,39,39,39,39,
0,0,0,0,0,0,0,0,0,0,0,0,0,0,0,0,0,0,0,39,39,39,39,39,39,39,39,39,0,0,0,0,0,0,0,0,0,0,0,0,0,0,0,0,0,0,0,0,0,0,39,39,39,39,39,39,39,39,39,39,
0,0,0,0,0,0,0,0,0,0,0,0,0,0,0,0,0,0,0,39,39,39,39,39,39,39,39,39,0,0,0,0,0,0,0,0,0,0,0,0,0,0,0,0,0,0,0,0,0,0,39,39,39,39,39,39,39,39,39,39,
0,0,0,0,0,0,0,0,0,0,0,0,0,0,0,0,0,0,0,39,39,39,39,39,39,39,39,39,0,0,0,0,0,0,0,0,0,0,0,0,0,0,0,0,0,0,0,0,0,0,39,39,39,39,39,39,39,39,39,39,
0,0,0,0,0,0,0,0,0,0,0,0,0,0,0,0,0,0,0,39,39,39,39,39,39,39,39,39,0,0,0,0,0,0,0,0,0,0,0,0,0,0,0,0,0,0,0,0,0,0,39,39,39,39,39,39,39,39,39,39,
0,0,0,0,0,0,0,0,0,0,0,0,0,0,0,0,0,0,0,39,39,39,39,39,39,39,39,39,0,0,0,0,0,0,0,0,0,0,0,0,0,0,0,0,0,0,0,0,0,0,39,39,39,39,39,39,39,39,39,39,
0,0,0,0,0,0,0,0,0,0,0,0,0,0,0,0,0,0,0,39,39,39,39,39,39,39,39,39,0,0,0,0,0,0,0,0,0,0,0,0,0,0,0,0,0,0,0,0,0,0,39,39,39,39,39,39,39,39,39,39,
0,0,0,0,0,0,0,0,0,0,0,0,0,0,0,0,0,0,0,39,39,39,39,39,39,39,39,39,0,0,0,0,0,0,0,0,0,0,0,0,0,0,0,0,0,0,0,0,0,0,39,39,39,39,39,39,39,39,39,39,
0,0,0,0,0,0,0,0,0,0,0,0,0,0,0,0,0,0,0,39,39,39,39,39,39,39,39,39,0,0,0,0,0,0,0,0,0,0,0,0,0,0,0,0,0,0,0,0,0,0,39,39,39,39,39,39,39,39,39,39,
0,0,0,0,0,0,0,0,0,0,0,0,0,0,0,0,0,0,0,39,39,39,39,39,39,39,39,39,0,0,0,0,0,0,0,0,0,0,0,0,0,0,0,0,0,0,0,0,0,0,39,39,39,39,39,39,39,39,39,39,
0,0,0,0,0,0,0,0,0,40,40,40,40,0,0,0,0,0,0,39,39,39,39,39,39,39,39,39,0,0,0,0,0,0,0,0,0,0,0,0,0,0,0,0,0,0,0,0,0,0,39,39,39,39,39,39,39,39,39,39,
0,0,0,0,0,0,0,0,0,39,39,39,39,0,0,0,0,0,0,39,39,39,39,39,39,39,39,39,0,0,0,0,0,0,0,0,0,0,0,0,0,0,0,0,0,0,0,0,0,0,39,39,39,39,39,39,39,39,39,39,
0,0,0,0,0,0,0,0,0,39,39,39,39,0,0,0,0,0,0,39,39,39,39,39,39,39,39,39,0,0,0,0,0,0,0,0,0,0,0,0,0,0,0,0,0,0,0,0,0,0,39,39,39,39,39,39,39,39,39,39,
0,0,0,0,0,0,0,0,0,39,39,39,39,0,0,0,0,0,0,39,39,39,39,39,39,39,39,39,0,0,0,0,0,0,0,0,0,0,0,0,0,0,0,0,0,0,0,0,0,0,39,39,39,39,39,39,39,39,39,39,
0,0,0,0,0,0,0,0,0,39,39,39,39,0,0,0,0,0,0,39,39,39,39,39,39,39,39,39,0,0,0,0,40,40,40,0,0,0,0,0,0,0,0,0,0,0,0,0,0,0,39,39,39,39,39,39,39,39,39,39,
0,0,0,0,0,0,0,0,0,39,39,39,39,0,0,0,0,0,0,39,39,39,39,39,39,39,39,39,0,0,0,0,39,39,39,40,40,40,40,0,0,0,0,0,0,0,0,0,0,0,39,39,39,39,39,39,39,39,39,39,
0,0,0,0,0,0,0,0,0,39,39,39,39,0,0,0,0,0,0,39,39,39,39,39,39,39,39,39,0,0,0,0,0,0,39,39,39,39,39,40,40,40,40,0,0,0,0,0,0,0,39,39,39,39,39,39,39,39,39,39,
0,0,0,0,0,0,0,0,0,39,39,39,39,0,0,0,0,0,0,39,39,39,39,39,39,39,39,39,0,0,0,0,0,0,0,0,0,0,39,39,39,39,39,0,0,0,0,0,0,0,39,39,39,39,39,39,39,39,39,39,
0,0,0,0,0,0,0,0,0,39,39,39,39,0,0,0,0,0,0,39,39,39,39,39,39,39,39,39,0,0,0,0,0,0,0,0,0,0,0,0,0,0,0,0,0,0,0,0,0,0,39,39,39,39,39,39,39,39,39,39,
0,0,0,0,0,0,0,0,0,39,39,39,39,0,0,0,0,0,0,39,39,39,39,39,39,39,39,39,0,0,0,0,0,0,0,0,0,0,0,0,0,0,0,0,0,0,0,0,0,0,39,39,39,39,39,39,39,39,39,39,
0,0,0,0,0,0,0,0,0,39,39,39,39,0,0,0,0,0,0,39,39,39,39,39,39,39,39,39,0,0,0,0,0,0,0,0,0,0,0,0,0,0,0,0,0,0,0,0,0,0,39,39,39,39,39,39,39,39,39,39,
0,0,0,0,0,0,0,0,0,39,39,39,39,0,0,0,0,0,0,39,39,39,39,39,39,39,39,39,0,0,0,0,0,0,0,0,0,0,0,0,0,0,0,0,0,0,0,0,0,0,39,39,39,39,39,39,39,39,39,39,
0,0,0,0,0,0,0,0,0,39,39,39,39,0,0,0,0,0,0,39,39,39,39,39,39,39,39,39,0,0,0,0,0,0,0,0,0,0,0,0,0,0,0,0,0,0,0,0,0,0,39,39,39,39,39,39,39,39,39,39
</data>
 </layer>
 <layer id="1" name="normal" width="60" height="34">
  <data encoding="csv">
0,0,0,0,0,0,0,0,0,0,0,0,0,0,0,0,0,0,0,0,0,0,0,0,0,0,0,0,0,0,0,0,0,0,0,0,0,0,0,0,0,0,0,0,0,0,0,0,0,0,0,0,0,0,0,0,0,0,0,0,
0,0,0,0,0,0,0,0,0,0,0,0,0,0,0,0,0,0,0,0,0,0,0,0,0,0,0,0,0,0,0,0,0,0,0,0,0,0,0,0,0,0,0,0,0,0,0,0,0,0,0,0,0,0,0,0,0,0,0,0,
0,0,0,0,0,0,0,0,0,0,0,0,0,0,0,0,0,0,0,0,0,0,0,0,0,0,0,0,0,0,0,0,0,0,0,0,0,0,0,0,0,0,0,0,0,0,0,0,0,0,0,0,0,0,0,0,0,0,0,0,
0,0,0,0,0,0,0,0,0,0,0,0,0,0,0,0,0,0,0,0,0,0,0,0,0,0,0,0,0,0,0,0,0,0,0,0,0,0,0,0,0,0,0,0,0,0,0,0,0,0,0,0,0,0,0,0,0,0,0,0,
0,0,0,0,0,0,0,0,0,0,0,0,0,0,0,0,0,0,0,0,0,0,0,0,0,0,0,0,0,0,0,0,0,0,0,0,0,0,0,0,0,0,0,0,0,0,0,0,0,0,0,0,0,0,0,0,0,0,0,41,
0,0,0,0,0,0,0,0,0,0,0,0,0,0,0,0,0,0,0,0,0,0,0,0,0,0,0,0,0,0,0,0,0,0,0,0,0,0,0,0,0,0,0,0,0,0,0,0,0,0,0,0,0,16,0,0,0,4,13,13,
0,0,0,0,0,0,0,0,0,0,0,0,0,0,0,0,0,0,0,0,0,0,0,0,0,0,0,0,0,0,0,0,0,0,0,0,0,0,0,0,0,0,0,0,0,0,0,0,0,1,0,0,0,0,0,0,0,0,0,0,
0,0,0,0,0,0,0,0,0,0,0,0,0,0,0,0,0,0,0,0,0,0,0,0,0,0,0,0,0,0,0,0,0,0,0,0,0,0,0,0,0,0,0,0,0,0,0,0,0,14,0,0,0,0,0,0,0,0,0,0,
0,0,0,0,0,0,0,0,0,0,0,43,0,0,0,0,43,0,0,0,0,0,0,0,0,0,0,0,0,0,0,0,0,0,0,0,0,0,0,0,0,0,0,0,0,0,0,0,0,14,0,0,0,0,0,0,0,0,0,0,
0,0,0,0,0,0,0,0,0,0,0,0,0,0,0,0,0,0,0,0,0,0,0,0,0,0,0,0,0,0,0,0,0,0,0,0,0,0,0,0,0,0,0,0,0,0,0,0,0,14,0,0,0,0,0,0,0,0,0,0,
0,0,0,0,0,0,0,1,0,0,0,0,0,0,0,0,0,0,0,0,0,0,0,0,0,0,0,0,33,0,0,0,0,0,0,0,0,0,0,0,0,0,0,0,0,0,0,0,0,14,0,0,0,0,0,0,0,0,0,0,
0,0,0,0,0,0,0,14,0,0,0,0,0,0,0,0,0,0,1,0,0,0,0,0,0,0,0,0,1,0,0,0,0,0,0,0,0,0,0,0,0,0,0,0,0,0,0,0,0,14,34,0,0,0,0,0,0,43,0,0,
0,0,0,0,0,0,0,14,0,0,0,0,0,0,0,0,0,0,14,0,0,0,0,0,0,0,0,0,14,0,0,0,0,0,0,0,0,0,0,0,0,0,0,0,0,0,0,0,0,14,0,0,0,0,0,0,0,0,0,0,
0,0,0,0,0,0,0,14,0,0,0,0,0,0,0,0,33,0,14,34,0,0,0,0,0,0,0,0,14,0,0,0,0,0,0,0,0,0,0,0,0,0,0,0,0,0,0,0,0,14,0,43,0,0,0,0,0,0,0,0,
0,0,0,0,0,0,0,14,0,0,0,43,0,0,0,0,1,0,14,0,0,0,0,0,0,0,0,0,14,0,0,0,0,0,0,0,0,0,0,0,0,0,0,0,0,0,0,0,0,14,0,0,0,0,0,0,0,0,0,0,
0,0,0,0,0,0,0,3,0,0,0,0,0,0,0,0,14,0,14,0,0,0,0,0,0,33,0,0,14,0,0,0,0,0,0,0,0,0,0,0,0,0,0,0,0,0,0,0,0,14,0,0,0,0,0,0,0,0,43,0,
0,0,0,0,0,0,0,0,0,0,0,0,0,0,0,0,14,0,14,0,0,0,0,0,0,35,0,0,14,0,0,0,0,0,0,0,0,0,0,0,0,0,0,0,0,0,0,0,0,14,0,0,0,0,0,0,0,0,0,0,
0,0,0,0,0,0,0,0,0,0,0,0,0,0,0,0,14,0,14,0,0,33,0,0,0,0,0,0,14,0,0,0,0,0,0,0,0,0,0,0,0,0,0,0,0,0,0,0,0,14,34,0,0,0,43,0,0,0,0,0,
0,0,0,0,0,0,0,0,0,0,0,0,0,0,0,0,14,0,14,0,0,35,0,0,0,0,0,0,14,0,0,0,0,0,0,0,0,0,0,0,0,0,0,0,0,0,0,0,0,14,0,0,0,0,0,0,0,0,0,0,
0,0,0,0,0,0,0,0,0,0,0,0,0,0,0,0,14,0,14,0,0,0,0,0,0,0,0,36,14,0,0,0,0,0,0,0,0,0,0,0,0,0,0,0,0,0,0,0,0,14,0,0,0,0,0,0,0,0,0,0,
0,0,0,0,0,0,0,0,0,0,0,0,0,0,0,0,14,0,14,0,0,0,0,0,0,0,0,0,14,0,0,0,0,0,0,0,0,0,0,0,0,0,0,0,0,0,0,0,0,14,0,43,0,0,0,0,0,0,0,0,
0,0,0,0,0,0,8,13,5,0,0,0,0,8,13,13,6,0,14,36,34,0,0,0,33,0,0,0,14,0,0,0,0,0,0,0,0,0,0,0,0,0,0,0,0,0,0,0,0,14,0,0,0,0,0,0,0,0,43,0,
0,0,0,0,0,0,14,0,14,0,0,0,0,14,0,0,0,0,14,0,0,0,0,0,35,0,0,0,14,0,0,0,0,0,0,0,0,0,0,0,0,0,0,0,0,0,0,0,0,14,0,0,0,0,0,43,0,0,0,0,
0,0,0,0,0,0,14,0,14,0,0,0,0,14,0,0,0,0,14,0,0,0,0,0,0,0,0,0,3,0,0,0,0,0,0,0,0,0,0,0,0,0,0,0,0,0,0,0,0,14,34,0,0,0,0,0,0,0,0,0,
8,13,13,13,13,13,6,0,14,0,0,0,0,14,0,0,0,0,14,0,0,0,0,0,0,0,0,0,0,0,0,0,0,0,0,0,0,0,0,0,0,0,0,0,0,0,0,0,0,3,0,0,0,0,0,0,0,0,0,0,
14,0,0,0,0,0,0,0,14,0,0,0,0,14,0,0,0,0,14,0,0,0,36,34,0,0,0,0,0,0,0,0,0,0,0,0,0,0,0,0,0,0,0,0,0,0,0,0,0,0,0,0,0,0,0,0,0,0,0,0,
14,0,0,0,0,0,0,0,14,0,0,0,0,14,0,0,0,0,14,0,0,0,0,0,0,0,0,0,0,0,0,0,0,0,0,0,0,0,0,0,0,0,0,0,0,0,0,0,0,0,0,0,43,0,0,0,0,0,0,0,
14,0,0,0,0,0,0,0,14,0,0,0,0,14,0,0,0,0,14,0,0,0,0,0,0,0,0,0,0,0,0,0,0,0,0,0,0,0,0,0,0,0,0,0,0,0,0,0,0,0,0,0,0,0,0,0,0,0,0,0,
14,0,0,0,0,0,0,0,14,0,0,0,0,14,0,0,0,0,14,0,0,0,0,0,36,34,0,0,1,0,0,0,0,0,0,0,0,0,0,0,0,0,0,0,0,0,0,0,0,0,0,0,0,0,0,0,0,0,43,0,
14,0,0,0,0,0,0,0,14,0,0,0,0,14,0,0,0,0,14,0,33,0,0,0,0,0,0,0,14,0,0,0,0,0,0,0,0,0,0,0,0,0,0,0,0,0,33,33,33,0,0,0,0,0,0,0,0,0,0,0,
14,0,0,0,0,0,0,0,14,0,0,0,0,14,0,0,0,0,14,0,35,0,0,0,0,0,0,0,14,0,0,0,0,0,0,0,0,0,0,0,0,0,4,13,13,13,13,13,13,5,0,0,0,0,43,0,0,0,0,0,
14,0,0,0,0,0,0,0,14,0,0,0,0,14,0,0,0,0,14,0,0,0,0,0,0,0,0,0,14,0,0,0,0,0,0,0,0,0,0,0,0,0,0,0,0,0,0,0,0,14,0,0,0,0,0,0,0,0,0,0,
14,0,0,0,0,0,0,0,14,0,0,0,0,14,0,0,0,0,14,0,0,0,0,0,0,0,0,0,14,0,0,0,0,0,0,0,0,0,0,0,0,0,0,0,0,0,0,0,0,14,0,0,0,0,0,0,0,0,0,0,
14,0,0,0,0,0,0,0,14,0,0,0,0,14,0,0,0,0,14,0,0,0,0,0,0,0,0,0,14,38,38,38,38,38,38,38,38,38,38,38,38,38,38,38,38,38,38,38,38,14,0,0,0,0,0,0,0,0,0,0
</data>
 </layer>
 <layer id="3" name="collision" width="60" height="34">
  <data encoding="csv">
0,0,0,0,0,0,0,0,0,0,0,0,0,0,0,0,0,0,0,0,0,0,0,0,0,0,0,0,0,0,0,0,0,0,0,0,0,0,0,0,0,0,0,0,0,0,0,0,0,0,0,0,0,0,0,0,0,0,0,0,
0,0,0,0,0,0,0,0,0,0,0,0,0,0,0,0,0,0,0,0,0,0,0,0,0,0,0,0,0,0,0,0,0,0,0,0,0,0,0,0,0,0,0,0,0,0,0,0,0,0,0,0,0,0,0,0,0,0,0,0,
0,0,0,0,0,0,0,0,0,0,0,0,0,0,0,0,0,0,0,0,0,0,0,0,0,0,0,0,0,0,0,0,0,0,0,0,0,0,0,0,0,0,0,0,0,0,0,0,0,0,0,0,0,0,0,0,0,0,0,0,
0,0,0,0,0,0,0,0,0,0,0,0,0,0,0,0,0,0,0,0,0,0,0,0,0,0,0,0,0,0,0,0,0,0,0,0,0,0,0,0,0,0,0,0,0,0,0,0,0,0,0,0,0,0,0,0,0,0,0,0,
0,0,0,0,0,0,0,0,0,0,0,0,0,0,0,0,0,0,0,0,0,0,0,0,0,0,0,0,0,0,0,0,0,0,0,0,0,0,0,0,0,0,0,0,0,0,0,0,0,0,0,0,0,0,0,0,0,0,0,67,
0,0,0,0,0,0,0,0,0,0,0,0,0,0,0,0,0,0,0,0,0,0,0,0,0,0,0,0,0,0,0,69,0,0,69,0,0,69,69,0,0,0,69,69,0,0,0,0,0,0,0,0,0,65,0,0,0,65,65,65,
0,0,0,0,0,0,0,0,0,0,0,0,0,0,0,0,0,0,0,0,0,0,0,0,0,0,0,0,0,0,0,69,0,0,69,0,69,0,0,69,0,69,0,0,69,0,0,0,0,65,0,0,0,0,0,0,0,0,0,0,
0,0,0,0,0,0,0,0,0,0,0,0,0,0,0,0,0,0,0,0,0,0,0,0,0,0,0,0,0,0,0,69,0,0,69,0,0,0,0,69,0,69,0,0,69,0,0,0,0,65,0,0,0,0,0,0,0,0,0,0,
0,0,0,0,0,0,0,0,0,0,0,70,0,0,0,0,70,0,0,0,0,0,0,0,0,0,0,0,0,0,0,69,69,69,69,0,0,0,69,0,0,69,0,0,69,0,0,0,0,65,0,0,0,0,0,0,0,0,0,0,
0,0,0,0,0,0,0,0,0,0,0,0,0,0,0,0,0,0,0,0,0,0,0,0,0,0,0,0,0,0,0,69,0,0,69,0,0,69,0,0,0,69,0,0,69,0,0,0,0,65,0,0,0,0,0,0,0,0,0,0,
0,0,0,0,0,0,0,65,0,0,0,0,0,0,0,0,0,0,0,0,0,0,0,0,0,0,0,0,73,0,0,69,0,0,69,0,69,0,0,0,0,69,0,0,69,0,0,0,0,65,69,69,69,69,69,69,69,69,69,69,
0,0,0,0,0,0,0,65,0,0,0,0,0,0,0,0,0,0,65,69,69,69,69,69,69,69,69,69,65,0,0,69,0,0,69,0,69,69,69,69,0,0,69,69,0,0,0,0,0,65,74,69,69,69,69,69,69,70,69,69,
0,0,0,0,0,0,0,65,0,0,0,0,0,0,0,0,0,0,65,69,69,69,69,69,69,69,69,69,65,0,0,0,0,0,0,0,0,0,0,0,0,0,0,0,0,0,0,0,0,65,69,69,69,69,69,69,69,69,69,69,
0,0,0,0,0,0,0,65,0,0,0,0,0,0,0,0,73,0,65,74,69,69,69,69,69,69,69,69,65,0,0,0,0,0,0,0,0,0,0,0,0,0,0,0,0,0,0,0,0,65,69,70,69,69,69,69,69,69,69,69,
0,0,0,0,0,0,0,65,0,0,0,70,0,0,0,0,65,0,65,69,69,69,69,69,69,69,69,69,65,0,0,0,0,0,0,0,0,0,0,0,0,0,0,0,0,0,0,0,0,65,69,69,69,69,69,69,69,69,69,69,
0,0,0,0,0,0,0,65,0,0,0,0,0,0,0,0,65,0,65,69,69,69,69,69,69,73,69,69,65,0,0,0,0,0,0,0,0,0,0,0,0,0,0,0,0,0,0,0,0,65,69,69,69,69,69,69,69,69,70,69,
0,0,0,0,0,0,0,0,0,0,0,0,0,0,0,0,65,0,65,69,69,69,69,69,69,75,69,69,65,0,0,0,0,0,0,0,0,0,0,0,0,0,0,0,0,0,0,0,0,65,69,69,69,69,69,69,69,69,69,69,
0,0,0,0,0,0,0,0,0,0,0,0,0,0,0,0,65,0,65,69,69,73,69,69,69,69,69,69,65,0,0,0,0,0,0,0,0,0,0,0,0,0,0,0,0,0,0,0,0,65,74,69,69,69,70,69,69,69,69,69,
0,0,0,0,0,0,0,0,0,0,0,0,0,0,0,0,65,0,65,69,69,75,69,69,69,69,69,69,65,0,0,0,0,0,0,0,0,0,0,0,0,0,0,0,0,0,0,0,0,65,69,69,69,69,69,69,69,69,69,69,
0,0,0,0,0,0,0,0,0,0,0,0,0,0,0,0,65,0,65,69,69,69,69,69,69,69,69,76,65,0,0,0,0,0,0,0,0,0,0,0,0,0,0,0,0,0,0,0,0,65,69,69,69,69,69,69,69,69,69,69,
0,81,0,0,0,0,0,0,0,0,0,0,0,0,0,0,65,0,65,69,69,69,69,69,69,69,69,69,65,0,0,0,0,0,0,0,0,0,0,0,0,0,0,0,0,0,0,0,0,65,69,70,69,69,69,69,69,69,69,69,
0,0,0,0,0,0,65,65,65,69,69,69,69,65,65,65,65,0,65,76,74,69,69,69,73,69,69,69,65,0,0,0,0,0,0,0,0,0,0,0,0,0,0,0,0,0,0,0,0,65,69,69,69,69,69,69,69,69,70,69,
0,0,0,0,0,0,65,0,65,69,69,69,69,65,0,0,0,0,65,69,69,69,69,69,75,69,69,69,65,0,0,0,0,0,0,0,0,0,0,0,0,0,0,0,0,0,0,0,0,65,69,69,69,69,69,70,69,69,69,69,
0,0,0,0,0,0,65,0,65,69,69,69,69,65,0,0,0,0,65,69,69,69,69,69,69,69,69,69,65,0,0,0,0,0,0,0,0,0,0,0,0,0,0,0,0,0,0,0,0,65,74,69,69,69,69,69,69,69,69,69,
65,65,65,65,65,65,65,0,65,69,69,69,69,65,0,0,0,0,65,69,69,69,69,69,69,69,69,69,0,0,0,0,0,0,0,0,0,0,0,0,0,0,0,0,0,0,0,0,0,65,69,69,69,69,69,69,69,69,69,69,
65,0,0,0,0,0,0,0,65,69,69,69,69,65,0,0,0,0,65,69,69,69,76,74,69,69,69,69,0,0,0,0,69,69,69,0,0,0,0,0,0,0,0,0,0,0,0,0,0,0,69,69,69,69,69,69,69,69,69,69,
65,0,0,0,0,0,0,0,65,69,69,69,69,65,0,0,0,0,65,69,69,69,69,69,69,69,69,69,0,0,0,0,69,69,69,69,69,69,69,0,0,0,0,0,0,0,0,0,0,0,69,69,70,69,69,69,69,69,69,69,
65,0,0,0,0,0,0,0,65,69,69,69,69,65,0,0,0,0,65,69,69,69,69,69,69,69,69,69,0,0,0,0,0,0,69,69,69,69,69,69,69,69,69,0,0,0,0,0,0,0,69,69,69,69,69,69,69,69,69,69,
65,0,0,0,0,0,0,0,65,69,69,69,69,65,0,0,0,0,65,69,69,69,69,69,76,74,69,69,65,0,0,0,0,0,0,0,0,0,0,69,69,69,69,0,0,0,0,0,0,0,69,69,69,69,69,69,69,69,70,69,
65,0,0,0,0,0,0,0,65,69,69,69,69,65,0,0,0,0,65,69,73,69,69,69,69,69,69,69,65,0,0,0,0,0,0,0,0,0,0,0,0,0,0,0,0,0,73,73,73,0,69,69,69,69,69,69,69,69,69,69,
65,0,0,0,0,0,0,0,65,69,69,69,69,65,0,0,0,0,65,69,75,69,69,69,69,69,69,69,65,0,0,0,0,0,0,0,0,0,0,0,0,0,65,65,65,65,65,65,65,65,69,69,69,69,70,69,69,69,69,69,
65,0,0,0,0,0,0,0,65,69,69,69,69,65,0,0,0,0,65,69,69,69,69,69,69,69,69,69,65,0,0,0,0,0,0,0,0,0,0,0,0,0,0,0,0,0,0,0,0,65,69,69,69,69,69,69,69,69,69,69,
65,0,0,0,0,0,0,0,65,69,69,69,69,65,0,0,0,0,65,69,69,69,69,69,69,69,69,69,65,0,0,0,0,0,0,0,0,0,0,0,0,0,0,0,0,0,0,0,0,65,69,69,69,69,69,69,69,69,69,69,
65,0,0,0,0,0,0,0,65,69,69,69,69,65,0,0,0,0,65,69,69,69,69,69,69,69,69,69,65,66,66,66,66,66,66,66,66,66,66,66,66,66,66,66,66,66,66,66,66,65,69,69,69,69,69,69,69,69,69,69
</data>
 </layer>
</map>
